X: 6
T: Amazing Grace v.1
P: piffero primo a0137
O: John Newton
%R: air, waltz
F: http://ancients.sudburymuster.org/mus/col/pdf/hymnsF.pdf
Z: 2020 John Chambers <jc:trillian.mit.edu>
M: 3/4
L: 1/8
K: G
A2 |\
d4(3fed | f4e2 | d4B2 | A4A2 |\
d4(3fed | f4ef | a6 | z4f2 |
a3faf | d4A2 | B3ddB | A4A2 |\
d4(3fed | f4e2 | d6 | z6 :|


